pizza/images/statistics-2.svg

<?xml version="1.0" encoding="UTF-8"?>
<svg xmlns="http://www.w3.org/2000/svg" xmlns:xlink="http://www.w3.org/1999/xlink" width="80pt" height="80pt" viewBox="0 0 80 80" version="1.1">
<g id="surface1">
<path style=" stroke:none;fill-rule:nonzero;fill:rgb(50.588235%,0%,0%);fill-opacity:1;" d="M 80 38.828125 L 62.363281 16.386719 L 47.667969 16.386719 L 41.019531 5.0625 L 7.707031 5.0625 L 0 18.1875 L 0 65.113281 L 8.460938 65.113281 C 8.757812 70.578125 13.300781 74.9375 18.839844 74.9375 C 24.382812 74.9375 28.921875 70.578125 29.222656 65.113281 L 50.777344 65.113281 C 51.078125 70.578125 55.617188 74.9375 61.160156 74.9375 C 66.699219 74.9375 71.242188 70.578125 71.539062 65.113281 L 80 65.113281 Z M 27.628906 44.242188 L 21.097656 44.242188 L 21.097656 34.722656 L 27.628906 34.722656 Z M 16.148438 29.777344 L 16.148438 44.242188 L 4.949219 44.242188 L 4.949219 21.335938 L 43.777344 21.335938 L 43.777344 44.242188 L 32.574219 44.242188 L 32.574219 29.777344 Z M 10.539062 10.011719 L 38.1875 10.011719 L 41.929688 16.386719 L 6.796875 16.386719 Z M 18.839844 69.988281 C 15.835938 69.988281 13.390625 67.542969 13.390625 64.539062 C 13.390625 61.535156 15.835938 59.089844 18.839844 59.089844 C 21.84375 59.089844 24.289062 61.535156 24.289062 64.539062 C 24.289062 67.542969 21.84375 69.988281 18.839844 69.988281 Z M 18.839844 54.140625 C 14.667969 54.140625 11.066406 56.609375 9.410156 60.164062 L 4.949219 60.164062 L 4.949219 49.191406 L 43.777344 49.191406 L 43.777344 60.164062 L 28.269531 60.164062 C 26.613281 56.609375 23.011719 54.140625 18.839844 54.140625 Z M 61.160156 69.988281 C 58.15625 69.988281 55.710938 67.542969 55.710938 64.539062 C 55.710938 61.535156 58.15625 59.089844 61.160156 59.089844 C 64.164062 59.089844 66.609375 61.535156 66.609375 64.539062 C 66.609375 67.542969 64.164062 69.988281 61.160156 69.988281 Z M 75.050781 60.164062 L 70.589844 60.164062 C 68.933594 56.609375 65.332031 54.140625 61.160156 54.140625 C 56.988281 54.140625 53.386719 56.609375 51.730469 60.164062 L 48.726562 60.164062 L 48.726562 21.335938 L 59.957031 21.335938 L 75.050781 40.542969 Z M 75.050781 60.164062 "/>
</g>
</svg>

<svg xmlns="http://www.w3.org/2000/svg" width="80pt" height="80pt" viewBox="0 0 80 80"><path d="M80 38.828L62.363 16.387H47.668L41.02 5.062H7.707L0 18.188v46.926h8.46c.298 5.465 4.84 9.825 10.38 9.825 5.543 0 10.082-4.36 10.383-9.825h21.554c.301 5.465 4.84 9.825 10.383 9.825 5.54 0 10.082-4.36 10.38-9.825H80zm-52.371 5.414h-6.531v-9.52h6.53zm-11.48-14.465v14.465h-11.2V21.336h38.828v22.906H32.574V29.777zm-5.61-19.765h27.648l3.743 6.375H6.797zm8.3 59.976a5.456 5.456 0 01-5.448-5.449 5.456 5.456 0 015.449-5.45 5.456 5.456 0 015.45 5.45 5.456 5.456 0 01-5.45 5.45zm0-15.847c-4.171 0-7.773 2.468-9.429 6.023H4.95V49.191h38.827v10.973H28.27c-1.657-3.555-5.258-6.023-9.43-6.023zM61.16 69.988a5.456 5.456 0 01-5.45-5.449 5.456 5.456 0 015.45-5.45 5.456 5.456 0 015.45 5.45 5.456 5.456 0 01-5.45 5.45zm13.89-9.824h-4.46c-1.656-3.555-5.258-6.023-9.43-6.023s-7.773 2.468-9.43 6.023h-3.003V21.336h11.23l15.094 19.207zm0 0" fill="#810000"/></svg>
